web/themes/quartiers_solidaires/assets/icons/settings-big.svg

<?xml version="1.0" encoding="UTF-8"?>
<svg width="143px" height="143px" viewBox="0 0 143 143" version="1.1" xmlns="http://www.w3.org/2000/svg" xmlns:xlink="http://www.w3.org/1999/xlink">
      <g id="settings-big" fill-rule="nonzero" fill="currentColor">
          <path d="M5.96386017,137.03634 C9.91507373,140.987553 16.3903263,140.987553 20.3415398,137.03634 L78.0885398,79.2893398 C82.0397534,75.3381263 82.0397534,68.8628737 78.0885398,64.9116602 C74.1373263,60.9604466 67.6620737,60.9604466 63.7108602,64.9116602 L5.96386017,122.65866 C2.01264661,126.609874 2.01264661,133.085126 5.96386017,137.03634 Z M3.84253983,139.15766 C-1.28024661,134.034874 -1.28024661,125.660126 3.84253983,120.53734 L61.5895398,62.7903398 C66.7123263,57.6675534 75.0870737,57.6675534 80.2098602,62.7903398 C85.3326466,67.9131263 85.3326466,76.2878737 80.2098602,81.4106602 L22.4628602,139.15766 C17.3400737,144.280447 8.96532627,144.280447 3.84253983,139.15766 Z" id="Stroke-1"></path>
          <path d="M132.939356,3.31107609 L139.68871,10.0604304 L129.767613,30.8114633 L115.108368,34.3325846 C114.839448,34.3971785 114.593622,34.5348634 114.398056,34.7304239 L81.0600557,68.0674239 C80.4742605,68.6532016 80.4742463,69.602949 81.0600239,70.1887443 C81.6458016,70.7745395 82.595549,70.7745537 83.1813443,70.1887761 L116.220276,37.1508356 L131.163032,33.5616154 C131.602544,33.4560456 131.971015,33.157909 132.165985,32.7501076 L142.852985,10.3971076 C143.127275,9.8234024 143.010011,9.13909092 142.56036,8.68943983 L134.31036,0.439439828 C133.860716,-0.0102044879 133.176417,-0.127471708 132.602716,0.146803403 L110.248716,10.8338034 C109.840874,11.0287846 109.542715,11.3972988 109.437163,11.8368573 L105.848929,26.7795595 L72.8110239,59.8184557 C72.2252463,60.404251 72.2252605,61.3539984 72.8110557,61.9397761 C73.396851,62.5255537 74.3465984,62.5255395 74.9323761,61.9397443 L108.269376,28.6017443 C108.464959,28.4061557 108.602652,28.1602967 108.667237,27.8913427 L112.187384,13.2321784 L132.939356,3.31107609 Z" id="Stroke-3"></path>
          <path d="M9.38263983,117.11836 L25.8816398,133.61736 C26.4674263,134.203147 27.4171737,134.203147 28.0029602,133.61736 C28.5887466,133.031574 28.5887466,132.081826 28.0029602,131.49604 L11.5039602,114.99704 C10.9181737,114.411253 9.96842627,114.411253 9.38263983,114.99704 C8.79685339,115.582826 8.79685339,116.532574 9.38263983,117.11836 Z" id="Stroke-5"></path>
          <path d="M56.0493398,70.4518602 L72.5483398,86.9508602 C73.1341263,87.5366466 74.0838737,87.5366466 74.6696602,86.9508602 C75.2554466,86.3650737 75.2554466,85.4153263 74.6696602,84.8295398 L58.1706602,68.3305398 C57.5848737,67.7447534 56.6351263,67.7447534 56.0493398,68.3305398 C55.4635534,68.9163263 55.4635534,69.8660737 56.0493398,70.4518602 Z" id="Stroke-7"></path>
          <path d="M61.5491398,73.8302398 L14.8821398,120.49724 C14.2963534,121.083026 14.2963534,122.032774 14.8821398,122.61856 C15.4679263,123.204347 16.4176737,123.204347 17.0034602,122.61856 L63.6704602,75.9515602 C64.2562466,75.3657737 64.2562466,74.4160263 63.6704602,73.8302398 C63.0846737,73.2444534 62.1349263,73.2444534 61.5491398,73.8302398 Z" id="Stroke-9"></path>
          <path d="M67.0486398,79.3297398 L20.3816398,125.99674 C19.7958534,126.582526 19.7958534,127.532274 20.3816398,128.11806 C20.9674263,128.703847 21.9171737,128.703847 22.5029602,128.11806 L69.1699602,81.4510602 C69.7557466,80.8652737 69.7557466,79.9155263 69.1699602,79.3297398 C68.5841737,78.7439534 67.6344263,78.7439534 67.0486398,79.3297398 Z" id="Stroke-11"></path>
          <path d="M35.0001,24.8331 C35.0001,19.2181619 30.4483076,14.6661 24.8331,14.6661 C19.2187576,14.6661 14.6671,19.2182966 14.6671,24.8331 C14.6671,30.4479034 19.2187576,35.0001 24.8331,35.0001 C30.4483076,35.0001 35.0001,30.4480381 35.0001,24.8331 Z M38.0001,24.8331 C38.0001,32.1048526 32.1052016,38.0001 24.8331,38.0001 C17.5618238,38.0001 11.6671,32.1046781 11.6671,24.8331 C11.6671,17.5615219 17.5618238,11.6661 24.8331,11.6661 C32.1052016,11.6661 38.0001,17.5613474 38.0001,24.8331 Z" id="Stroke-13"></path>
          <path d="M46.2085268,37.4304313 C48.4589594,33.6215851 49.6671,29.3110656 49.6671,24.8334 C49.6671,11.1181437 38.548698,0.0004 24.8331,0.0004 C11.1176729,0.0004 0.0001,11.1179729 0.0001,24.8334 C0.0001,38.5481626 11.1180083,49.6664 24.8331,49.6664 C29.3110589,49.6664 33.6214913,48.4586316 37.4308556,46.2089896 C38.1441809,45.7877313 38.380948,44.8679696 37.9596896,44.1546444 C37.5384313,43.4413191 36.6186696,43.204552 35.9053444,43.6258104 C32.5524219,45.6058978 28.7675715,46.6664 24.8331,46.6664 C12.7748824,46.6664 3.0001,36.8913282 3.0001,24.8334 C3.0001,12.7748271 12.7745271,3.0004 24.8331,3.0004 C36.8918835,3.0004 46.6671,12.7750377 46.6671,24.8334 C46.6671,28.7673954 45.6063276,32.5521208 43.6256732,35.9043687 C43.2042626,36.617604 43.4408333,37.5374162 44.1540687,37.9588268 C44.867304,38.3802374 45.7871162,38.1436667 46.2085268,37.4304313 Z" id="Stroke-15"></path>
          <path d="M133.250042,114.629766 L127.476638,108.855517 C122.334774,103.713653 113.998026,103.713653 108.85624,108.85544 C103.714492,113.998316 103.714492,122.333884 108.856123,127.476644 L114.629644,133.250164 L108.501836,139.378715 L102.72756,133.60444 C95.6514047,126.528284 94.3528856,115.607357 99.3757495,107.095415 C99.7967647,106.381947 99.5596842,105.462266 98.8462154,105.04125 C98.1327466,104.620235 97.2130656,104.857316 96.7920505,105.570785 C91.0785774,115.25306 92.5555819,127.675102 100.60624,135.72576 L107.44124,142.56076 C108.027051,143.146572 108.976848,143.146543 109.562624,142.560696 L117.811624,134.310696 C118.39735,133.724899 118.397322,132.775201 117.81156,132.18944 L110.97756,125.35544 C107.007308,121.384316 107.007308,114.947884 110.977677,110.976644 C114.947774,107.006547 121.385026,107.006547 125.35524,110.97676 L132.189162,117.811683 C132.774911,118.397517 133.724669,118.397581 134.310496,117.811824 L142.560496,109.562824 C143.146313,108.977079 143.146376,108.027342 142.560638,107.441517 L135.726638,100.606517 C127.674995,92.5559226 115.254131,91.0787479 105.570755,96.79115 C104.857231,97.2120711 104.620029,98.1317208 105.04095,98.8452451 C105.461871,99.5587694 106.381521,99.7959711 107.095045,99.37505 C115.608195,94.3529861 126.528231,95.6516719 133.605309,102.727829 L139.378593,108.501958 L133.250042,114.629766 Z" id="Stroke-17"></path>
          <path d="M31.8334,26.3331 L36.5004,26.3331 C37.3288271,26.3331 38.0004,25.6615271 38.0004,24.8331 C38.0004,24.0046729 37.3288271,23.3331 36.5004,23.3331 L31.8334,23.3331 C31.0049729,23.3331 30.3334,24.0046729 30.3334,24.8331 C30.3334,25.6615271 31.0049729,26.3331 31.8334,26.3331 Z" id="Stroke-19"></path>
          <path d="M13.1666,26.3331 L17.8336,26.3331 C18.6620271,26.3331 19.3336,25.6615271 19.3336,24.8331 C19.3336,24.0046729 18.6620271,23.3331 17.8336,23.3331 L13.1666,23.3331 C12.3381729,23.3331 11.6666,24.0046729 11.6666,24.8331 C11.6666,25.6615271 12.3381729,26.3331 13.1666,26.3331 Z" id="Stroke-21"></path>
          <path d="M23.3334,31.8331 L23.3334,36.5001 C23.3334,37.3285271 24.0049729,38.0001 24.8334,38.0001 C25.6618271,38.0001 26.3334,37.3285271 26.3334,36.5001 L26.3334,31.8331 C26.3334,31.0046729 25.6618271,30.3331 24.8334,30.3331 C24.0049729,30.3331 23.3334,31.0046729 23.3334,31.8331 Z" id="Stroke-23"></path>
          <path d="M23.3334,13.1664 L23.3334,17.8334 C23.3334,18.6618271 24.0049729,19.3334 24.8334,19.3334 C25.6618271,19.3334 26.3334,18.6618271 26.3334,17.8334 L26.3334,13.1664 C26.3334,12.3379729 25.6618271,11.6664 24.8334,11.6664 C24.0049729,11.6664 23.3334,12.3379729 23.3334,13.1664 Z" id="Stroke-25"></path>
          <path d="M107.393838,97.0224177 L83.420838,73.0504177 C82.8350394,72.4646435 81.8852919,72.4646633 81.2995177,73.050462 C80.7137435,73.6362606 80.7137633,74.5860081 81.299562,75.1717823 L105.272562,99.1437823 C105.858361,99.7295565 106.808108,99.7295367 107.393882,99.143738 C107.979657,98.5579394 107.979637,97.6081919 107.393838,97.0224177 Z" id="Stroke-27"></path>
          <path d="M43.8567398,37.7280602 L67.8287398,61.7000602 C68.4145263,62.2858466 69.3642737,62.2858466 69.9500602,61.7000602 C70.5358466,61.1142737 70.5358466,60.1645263 69.9500602,59.5787398 L45.9780602,35.6067398 C45.3922737,35.0209534 44.4425263,35.0209534 43.8567398,35.6067398 C43.2709534,36.1925263 43.2709534,37.1422737 43.8567398,37.7280602 Z" id="Stroke-29"></path>
          <path d="M74.5642398,84.9347602 L97.0232398,107.39376 C97.6090263,107.979547 98.5587737,107.979547 99.1445602,107.39376 C99.7303466,106.807974 99.7303466,105.858226 99.1445602,105.27244 L76.6855602,82.8134398 C76.0997737,82.2276534 75.1500263,82.2276534 74.5642398,82.8134398 C73.9784534,83.3992263 73.9784534,84.3489737 74.5642398,84.9347602 Z" id="Stroke-31"></path>
          <path d="M60.1865602,66.3142398 L37.7285602,43.8562398 C37.1427737,43.2704534 36.1930263,43.2704534 35.6072398,43.8562398 C35.0214534,44.4420263 35.0214534,45.3917737 35.6072398,45.9775602 L58.0652398,68.4355602 C58.6510263,69.0213466 59.6007737,69.0213466 60.1865602,68.4355602 C60.7723466,67.8497737 60.7723466,66.9000263 60.1865602,66.3142398 Z" id="Stroke-33"></path>
      </g>

</svg>

<svg viewBox="0 0 143 143" xmlns="http://www.w3.org/2000/svg">
  <g fill="currentColor">
    <path d="M5.964 137.036c3.951 3.952 10.426 3.952 14.378 0L78.089 79.29c3.95-3.95 3.95-10.426 0-14.377-3.952-3.952-10.427-3.952-14.378 0L5.964 122.659c-3.951 3.95-3.951 10.426 0 14.377zm-2.121 2.122c-5.123-5.123-5.123-13.498 0-18.62L61.59 62.79c5.122-5.122 13.497-5.122 18.62 0 5.123 5.123 5.123 13.498 0 18.62l-57.747 57.748c-5.123 5.122-13.498 5.122-18.62 0z"/>
    <path d="M132.94 3.311l6.749 6.75-9.921 20.75-14.66 3.522a1.5 1.5 0 0 0-.71.397L81.06 68.067a1.5 1.5 0 0 0 2.121 2.122l33.04-33.038 14.942-3.59a1.5 1.5 0 0 0 1.003-.81l10.687-22.354a1.5 1.5 0 0 0-.293-1.708L134.31.44a1.5 1.5 0 0 0-1.707-.292l-22.354 10.687a1.5 1.5 0 0 0-.812 1.003L105.85 26.78 72.81 59.818a1.5 1.5 0 0 0 2.121 2.122l33.337-33.338a1.5 1.5 0 0 0 .398-.71l3.52-14.66 20.752-9.92zM9.383 117.118l16.499 16.5a1.5 1.5 0 1 0 2.121-2.122l-16.499-16.499a1.5 1.5 0 1 0-2.121 2.121zM56.05 70.452L72.547 86.95a1.5 1.5 0 0 0 2.122-2.121l-16.5-16.5a1.5 1.5 0 0 0-2.12 2.122z"/>
    <path d="M61.55 73.83l-46.668 46.667a1.5 1.5 0 1 0 2.121 2.122L63.67 75.952a1.5 1.5 0 0 0-2.12-2.122zM67.049 79.33l-46.667 46.667a1.5 1.5 0 1 0 2.121 2.121L69.17 81.451a1.5 1.5 0 0 0-2.121-2.121zM35 24.833c0-5.615-4.552-10.167-10.167-10.167-5.614 0-10.166 4.552-10.166 10.167S19.22 35 24.833 35C30.448 35 35 30.448 35 24.833zm3 0C38 32.105 32.105 38 24.833 38c-7.271 0-13.166-5.895-13.166-13.167 0-7.271 5.895-13.167 13.166-13.167C32.105 11.666 38 17.561 38 24.833z"/>
    <path d="M46.209 37.43a24.674 24.674 0 0 0 3.458-12.597C49.667 11.118 38.55 0 24.833 0 11.118 0 0 11.118 0 24.833c0 13.715 11.118 24.833 24.833 24.833 4.478 0 8.788-1.207 12.598-3.457a1.5 1.5 0 1 0-1.526-2.583 21.685 21.685 0 0 1-11.072 3.04C12.775 46.666 3 36.891 3 24.833 3 12.775 12.775 3 24.833 3c12.059 0 21.834 9.775 21.834 21.833 0 3.934-1.06 7.72-3.041 11.071a1.5 1.5 0 1 0 2.583 1.526zM133.25 114.63l-5.773-5.774c-5.142-5.142-13.479-5.142-18.62 0-5.143 5.142-5.143 13.478 0 18.62l5.773 5.774-6.128 6.129-5.774-5.775c-7.077-7.076-8.375-17.997-3.352-26.509a1.5 1.5 0 0 0-2.584-1.524c-5.713 9.682-4.236 22.104 3.814 30.155l6.835 6.835a1.5 1.5 0 0 0 2.122 0l8.249-8.25a1.5 1.5 0 0 0 0-2.122l-6.834-6.834c-3.97-3.97-3.97-10.407 0-14.378 3.97-3.97 10.407-3.97 14.377 0l6.834 6.835a1.5 1.5 0 0 0 2.121 0l8.25-8.25a1.5 1.5 0 0 0 0-2.12l-6.833-6.835c-8.052-8.051-20.473-9.528-30.156-3.816a1.5 1.5 0 0 0 1.524 2.584c8.513-5.022 19.433-3.723 26.51 3.353l5.774 5.774-6.129 6.128z"/>
    <path d="M31.833 26.333H36.5a1.5 1.5 0 0 0 0-3h-4.667a1.5 1.5 0 0 0 0 3zM13.167 26.333h4.667a1.5 1.5 0 0 0 0-3h-4.667a1.5 1.5 0 0 0 0 3zM23.333 31.833V36.5a1.5 1.5 0 0 0 3 0v-4.667a1.5 1.5 0 0 0-3 0zM23.333 13.166v4.667a1.5 1.5 0 0 0 3 0v-4.667a1.5 1.5 0 0 0-3 0zM107.394 97.022L83.42 73.05a1.5 1.5 0 1 0-2.121 2.122l23.973 23.972a1.5 1.5 0 1 0 2.12-2.122zM43.857 37.728L67.829 61.7a1.5 1.5 0 0 0 2.121-2.121L45.978 35.607a1.5 1.5 0 0 0-2.121 2.121zM74.564 84.935l22.46 22.459a1.5 1.5 0 1 0 2.12-2.122L76.687 82.813a1.5 1.5 0 0 0-2.122 2.122zM60.187 66.314L37.729 43.856a1.5 1.5 0 0 0-2.122 2.122l22.458 22.458a1.5 1.5 0 0 0 2.122-2.122z"/>
  </g>
</svg>
